COLOR/action 16/16/insert-object.svg

<svg height="16" width="16" xmlns="http://www.w3.org/2000/svg"><g stroke-width="1.066667"><path d="m8 0c-4.4141238 0-8 3.5858752-8 8 0 4.414124 3.5858762 8.000001 8 8 4.414124 0 8.000003-3.585876 8-8 0-4.4141248-3.585876-8-8-8z" fill="#1a7fd4"/><path d="m8 0c-4.4141238 0-8 3.5858752-8 8 0 .0844666.009112.1661593.01171875.25.13361877-4.2975763 3.65862405-7.75 7.98828125-7.75 4.329657 0 7.854662 3.4524237 7.988281 7.75.002607-.0838407.011719-.1655334.011719-.25 0-4.4141248-3.585876-8-8-8z" fill="#fff" opacity=".3"/><path d="m8.0000005 16c4.4141245 0 7.9999995-3.585875 7.9999995-8 0-.08447-.0091-.166159-.01172-.25-.133618 4.297576-3.658623 7.75-7.9882805 7.75-4.329657 0-7.854662-3.452424-7.988281-7.75-.0026.08384-.01172.165533-.01172.25 0 4.414125 3.585876 8 8 8z" opacity=".2"/></g><g stroke-width="1.03486" transform="matrix(1.0001356 0 0 1.0001356 -11.818827 .734253)"><circle cx="10.763678" cy="-23.316275" fill="#45a925" r="4.5" transform="rotate(90)"/><g fill="#f4f4f4"><rect height="1" rx=".266667" ry=".333333" width="5" x="20.816277" y="10.263678"/><rect height="5" rx=".333333" ry=".266667" width="1" x="22.816275" y="8.263678"/></g><path d="m11.5 6.9980469a4.5006102 4.5006102 0 0 0 -4.5 4.5019531 4.5006102 4.5006102 0 0 0 .0117188.292969 4.5006102 4.5006102 0 0 1 4.4882812-4.2949221 4.5006102 4.5006102 0 0 1 4.490234 4.2089841 4.5006102 4.5006102 0 0 0 .011719-.207031 4.5006102 4.5006102 0 0 0 -4.501953-4.5019531z" fill="#fff" opacity=".3" stroke-width="1.035" transform="matrix(.99986442 0 0 .99986442 11.817224 -.734154)"/><path d="m23.317618 15.263677a4.5 4.5 0 0 0 4.49939-4.501344 4.5 4.5 0 0 0 -.01172-.292929 4.5 4.5 0 0 1 -4.487672 4.29434 4.5 4.5 0 0 1 -4.489625-4.208414 4.5 4.5 0 0 0 -.01172.207003 4.5 4.5 0 0 0 4.501342 4.501344z" opacity=".2" stroke-width="1.03486"/></g></svg>

<?xml version="1.0" encoding="UTF-8" standalone="no"?>
<svg
   xmlns:dc="http://purl.org/dc/elements/1.1/"
   xmlns:cc="http://creativecommons.org/ns#"
   xmlns:rdf="http://www.w3.org/1999/02/22-rdf-syntax-ns#"
   xmlns:svg="http://www.w3.org/2000/svg"
   xmlns="http://www.w3.org/2000/svg"
   xmlns:sodipodi="http://sodipodi.sourceforge.net/DTD/sodipodi-0.dtd"
   xmlns:inkscape="http://www.inkscape.org/namespaces/inkscape"
   height="16"
   width="16"
   version="1.1"
   id="svg14"
   sodipodi:docname="insert-object.svg"
   inkscape:version="0.92.4 (5da689c313, 2019-01-14)">
  <metadata
     id="metadata20">
    <rdf:RDF>
      <cc:Work
         rdf:about="">
        <dc:format>image/svg+xml</dc:format>
        <dc:type
           rdf:resource="http://purl.org/dc/dcmitype/StillImage" />
      </cc:Work>
    </rdf:RDF>
  </metadata>
  <defs
     id="defs18" />
  <sodipodi:namedview
     pagecolor="#ffffff"
     bordercolor="#666666"
     borderopacity="1"
     objecttolerance="10"
     gridtolerance="10"
     guidetolerance="10"
     inkscape:pageopacity="0"
     inkscape:pageshadow="2"
     inkscape:window-width="1920"
     inkscape:window-height="1016"
     id="namedview16"
     showgrid="false"
     inkscape:zoom="14.75"
     inkscape:cx="8"
     inkscape:cy="8"
     inkscape:window-x="0"
     inkscape:window-y="27"
     inkscape:window-maximized="1"
     inkscape:current-layer="g12" />
  <path
     d="M 8,0 C 3.5858762,0 0,3.5858752 0,8 c 0,4.414124 3.5858762,8.000001 8,8 4.414124,0 8.000003,-3.585876 8,-8 C 16,3.5858752 12.414124,0 8,0 Z"
     id="path2"
     inkscape:connector-curvature="0"
     style="fill:#1a7fd4;stroke-width:1.06666672" />
  <path
     style="fill:#ffffff;stroke-width:1.06666672;fill-opacity:1;opacity:0.3"
     d="M 8 0 C 3.5858762 0 0 3.5858752 0 8 C 0 8.0844666 0.0091120025 8.1661593 0.01171875 8.25 C 0.14533752 3.9524237 3.6703428 0.5 8 0.5 C 12.329657 0.5 15.854662 3.9524237 15.988281 8.25 C 15.990888 8.1661593 16 8.0844666 16 8 C 16 3.5858752 12.414124 0 8 0 z "
     id="path827" />
  <path
     id="path832"
     d="M 8.0000005,16 C 12.414125,16 16,12.414125 16,8 16,7.91553 15.9909,7.833841 15.98828,7.75 15.854662,12.047576 12.329657,15.5 7.9999995,15.5 3.6703425,15.5 0.1453375,12.047576 0.0117185,7.75 0.0091185,7.83384 -1.5e-6,7.915533 -1.5e-6,8 c 0,4.414125 3.585876,8 8,8 z"
     style="opacity:0.2;fill:#000000;fill-opacity:1;stroke-width:1.06666672"
     inkscape:connector-curvature="0" />
  <g
     stroke-width="1.03486"
     transform="matrix(1.00013559506 0 0 1.00013559506 -11.81882682274 .73425325384)"
     id="g12">
    <circle
       cx="10.763678"
       cy="-23.316275"
       fill="#45a925"
       r="4.5"
       transform="rotate(90)"
       id="circle4" />
    <g
       fill="#f4f4f4"
       id="g10">
      <rect
         height="1"
         rx=".266667"
         ry=".333333"
         width="5"
         x="20.816277"
         y="10.263678"
         id="rect6" />
      <rect
         height="5"
         rx=".333333"
         ry=".266667"
         width="1"
         x="22.816275"
         y="8.263678"
         id="rect8" />
    </g>
    <path
       style="fill:#ffffff;stroke-width:1.03500032;fill-opacity:1;opacity:0.3"
       d="M 11.5 6.9980469 A 4.5006102 4.5006102 0 0 0 7 11.5 A 4.5006102 4.5006102 0 0 0 7.0117188 11.792969 A 4.5006102 4.5006102 0 0 1 11.5 7.4980469 A 4.5006102 4.5006102 0 0 1 15.990234 11.707031 A 4.5006102 4.5006102 0 0 0 16.001953 11.5 A 4.5006102 4.5006102 0 0 0 11.5 6.9980469 z "
       transform="matrix(0.99986442,0,0,0.99986442,11.817224,-0.73415371)"
       id="circle854" />
    <path
       id="path859"
       d="m 23.317618,15.263677 a 4.5,4.5 0 0 0 4.49939,-4.501344 4.5,4.5 0 0 0 -0.01172,-0.292929 4.5,4.5 0 0 1 -4.487672,4.29434 4.5,4.5 0 0 1 -4.489625,-4.208414 4.5,4.5 0 0 0 -0.01172,0.207003 4.5,4.5 0 0 0 4.501342,4.501344 z"
       style="opacity:0.2;fill:#000000;fill-opacity:1;stroke-width:1.03486001"
       inkscape:connector-curvature="0" />
  </g>
</svg>
